src/assets/svg/react-router-mark-color.svg

<svg width="94" height="61" viewBox="0 0 94 61" fill="none" xmlns="http://www.w3.org/2000/svg">
  <path
    d="M72.7315 20.9357C70.0548 20.0941 68.6725 20.3778 65.8649 20.071C61.5246 19.5976 59.7954 17.9013 59.0619 13.5356C58.6514 11.0985 59.1361 7.53022 58.0881 5.32106C56.0839 1.10875 51.3943 -0.780439 46.6828 0.297843C42.7049 1.20956 39.3951 5.18518 39.2117 9.266C39.0021 13.9254 41.657 17.901 46.2156 19.273C48.3814 19.9261 50.6825 20.2548 52.9444 20.4214C57.0925 20.7238 57.4113 23.0297 58.5335 24.9277C59.2409 26.1243 59.9264 27.3034 59.9264 30.8714C59.9264 34.4394 59.2365 35.6185 58.5335 36.8151C57.4113 38.7087 56.0271 39.9491 51.879 40.2559C49.6171 40.4225 47.3116 40.7513 45.1502 41.4044C40.5916 42.7807 37.9367 46.7519 38.1463 51.4113C38.3297 55.4921 41.6395 59.4678 45.6174 60.3795C50.3289 61.4621 55.0185 59.5686 57.0227 55.3563C58.075 53.1471 58.6514 50.6443 59.0619 48.2072C59.7998 43.8414 61.5289 42.1451 65.8649 41.6717C68.6725 41.3649 71.5783 41.6717 74.2093 40.177C76.9895 38.1456 79.4734 35.0968 79.4734 30.8714C79.4734 26.6459 76.7967 22.2156 72.7315 20.9357Z"
    fill="#F44250" />
  <path
    d="M28.1997 40.7739C22.7285 40.7739 18.2656 36.3027 18.2656 30.8213C18.2656 25.3399 22.7285 20.8687 28.1997 20.8687C33.6709 20.8687 38.1338 25.3399 38.1338 30.8213C38.1338 36.2983 33.6665 40.7739 28.1997 40.7739Z"
    fill="#121212" />
  <path
    d="M9.899 61C4.43661 60.9868 -0.0130938 56.498 2.89511e-05 51.0122C0.0132099 45.5353 4.4936 41.0773 9.96914 41.0948C15.4359 41.108 19.8856 45.5968 19.8681 51.0825C19.8549 56.5551 15.3745 61.0131 9.899 61Z"
    fill="#121212" />
  <path
    d="M83.7137 60.9998C78.2339 61.0304 73.7361 56.5901 73.7052 51.122C73.6747 45.632 78.1068 41.1258 83.5646 41.0949C89.0444 41.0643 93.5423 45.5046 93.5731 50.9727C93.6036 56.4583 89.1716 60.9689 83.7137 60.9998Z"
    fill="#121212" />
</svg>

<svg xmlns="http://www.w3.org/2000/svg" width="94" height="61" fill="none"><path fill="#F44250" d="M72.731 20.936c-2.676-.842-4.058-.558-6.866-.865-4.34-.473-6.07-2.17-6.803-6.535-.41-2.438.074-6.006-.974-8.215C56.084 1.11 51.394-.78 46.683.298c-3.978.912-7.288 4.887-7.471 8.968-.21 4.66 2.445 8.635 7.004 10.007 2.165.653 4.466.982 6.728 1.148 4.148.303 4.467 2.609 5.59 4.507.707 1.196 1.392 2.375 1.392 5.943 0 3.568-.69 4.747-1.393 5.944-1.122 1.894-2.506 3.134-6.654 3.44-2.262.167-4.567.496-6.729 1.15-4.558 1.376-7.213 5.347-7.004 10.006.184 4.081 3.493 8.057 7.471 8.968 4.712 1.083 9.402-.81 11.406-5.023 1.052-2.209 1.628-4.712 2.039-7.149.738-4.366 2.467-6.062 6.803-6.535 2.808-.307 5.713 0 8.344-1.495 2.78-2.031 5.264-5.08 5.264-9.306 0-4.225-2.676-8.655-6.742-9.935Z"/><path fill="#121212" d="M28.2 40.774c-5.471 0-9.934-4.471-9.934-9.953 0-5.481 4.463-9.952 9.934-9.952 5.47 0 9.934 4.47 9.934 9.952 0 5.477-4.468 9.953-9.934 9.953ZM9.899 61C4.437 60.987-.013 56.498 0 51.012c.013-5.477 4.494-9.935 9.97-9.917 5.466.013 9.916 4.502 9.898 9.988-.013 5.472-4.493 9.93-9.969 9.917ZM83.714 61c-5.48.03-9.978-4.41-10.009-9.878-.03-5.49 4.402-9.996 9.86-10.027 5.48-.03 9.977 4.41 10.008 9.878.03 5.485-4.401 9.996-9.86 10.027Z"/></svg>
